X:1
T:Curtain Call Memories
T:Curtain Call Memories
T:Original by: DJ Totto 
T:Transcribed by Andrew Herrera
T:2020
T:2020
C:DJ Totto
Z:Kalaborative
Z:2020
%%score { 1 | ( 2 3 ) }
L:1/8
Q:1/4=173
M:4/4
K:D
V:1 treble nm="Piano" snm="Pno."
V:2 treble 
V:3 treble 
V:1
 [Af]e/f/ e[Ad] a2 d[deb]- | [deb]a/b/ a z F/G/A/e/ d/e/f/g/ | [Af]e/f/ e[Ad] a2 d[dead']- | %3
 [dead']c'/d'/ a z f/g/f de | [df]gae d2 [db][da]- | [da] [dead']2 f/e/ defg | %6
 fA/_B/ =c/d/[Ae] [Ad][ea] [ad']a/_b/ |!8va(! =c'/d'/e' [ad'][ae'] (3d'e'd'!8va)! (3[da]ed | %8
 A3 d/e/ gf/e/ dc/d/ | [DA]3 C/B,/ C z z2 | [DA][Ge]/[Fd]/ [Ge][Fd] [DA][Fd] z [Fd] | %11
 [Ge][Fd][Ge][da] z [Bg][Af][Fd] | z [Ge]/[Fd]/ [Ge][Fd] [DA][Fd] z [Fd] | %13
 [Af][Bg][da][Fd] z B/c/ d/e/f/g/ | [da]2 [db]2 [da]de[da]- | [da]2 [Bg]2 [Ge]/[Af]/[Ge] [Fd][Ec] | %16
 [GAd]2 [Ge] [Adf]2 [Bg] [da]2- | [da][gad'] z [Bg] [Bg][Af][Ge][Fd] | %18
 z [Ge]/[Fd]/ [Ge][Fd] [DA][Fd] z [Fd] | [Ge][Fd][Ge][da] z [Bg][Af][Fd] | %20
 z [Ge]/[Fd]/ [Ge][Fd] [DA][Fd] z [Fd] | [Af][Bg][da][Fd] z B/c/ d/e/f/g/ | %22
 [da]2 [db]2 [da]de[da]- | [da]2 [Bg]2 [Ge]/[Af]/[Ge] [Fd][Ec] | [GAd]2 [Ge] [Adf]2 [Bg] [da]2- | %25
 [da] [=fd']2 [e=c']2 [fd'] [ge']=f'/e'/ | d'd'/d'/ d'c'/c'/ c'a/a/ ag | fgad z B/c/ d/e/f/g/ | %28
 fF/G/ Ad/c/ df/g/ ad'/e'/ | d'c'd' e'2 d'c'a | %30
 z!8va(! [d'd'']/[d'd'']/ [d'd''][c'c'']/[c'c'']/ [c'c''][aa']/[aa']/ [aa'][gg'] | %31
 [ff'][gg'][aa'][dd']!8va)! z B/c/ d/e/f/g/ | fG/A/ _Bd/c/ df/g/ ad'/c'/ | %33
 !///-![ad']3/2 d3/2 _b2 a g2 | z8 | z8 | z8 | z8 | z8 | z8 | z8 | z8 | z8 | z8 | z8 | z8 | z8 | %47
 z8 | z8 | z8 |] %50
V:2
!ped! G,DE A2 DEA!ped-up! |!ped! A,DE A2 DEA!ped-up! |!ped! F,DE A2 DEA!ped-up! | %3
!ped! G,DE A2 D A,2!ped-up! |!ped! E,DE A2 DEA!ped-up! |!ped! F,DE A2 DEA!ped-up! | %6
[K:bass] [G,,,G,,]3 [A,,,A,,]3 [_B,,,_B,,]2- | [B,,,B,,] [=C,,=C,]3 [=B,,,=B,,]4 | [_B,,,_B,,]8 | %9
 [A,,,A,,]4 z4 |!ped! [D,,,D,,]8- | [D,,,D,,]8!ped-up! |!ped! [F,,,F,,]8- | [F,,,F,,]8!ped-up! | %14
!ped! [G,,,G,,]8- | [G,,,G,,]8!ped-up! | [E,,G,]3 [F,,A,]3 [G,,A,]2- | [G,,A,][A,,B,] z2 z4 | %18
!ped! [D,,,D,,]8- | [D,,,D,,]8!ped-up! |!ped! [F,,,F,,]8- | [F,,,F,,]8!ped-up! |!ped! [G,,,G,,]8- | %23
 [G,,,G,,]8!ped-up! | [E,,G,]3 [F,,A,]3 [G,,=F,_B,]2- | [G,,F,B,] [A,,G,=C]3 [A,,,A,,]2 z2 | %26
!ped! E,,8!ped-up! |!ped! F,,8!ped-up! |!ped! G,,8!ped-up! |!ped! G,,8!ped-up! | %30
!ped! E,,8!ped-up! |!ped! F,,8!ped-up! | G,,8 | G,,,G,,G,,,G,, G,,,G,,G,,,G,, | %34
 A,,,A,,A,,,A,, A,,,A,,A,,,A,, | z8 | z8 | z8 | z8 | z8 | z8 | z8 | z8 | z8 | z8 | z8 | z8 | z8 | %48
 z8 | z8 |] %50
V:3
 x8 | x8 | x8 | x8 | x8 | x8 |[K:bass] x8 | x8 | x2 G,2 D4 | x8 | x2 A, [DE]3 [D,A,]2 | %11
 A, [DE]2 A, [DE]2 [D,A,]2 | x2 A, [DE]3 [D,A,]2 | A, [DE]2 A, [DE]2 [D,A,]2 | %14
 x2 A, [B,D]3 [D,A,]2 | A, [B,D]3 [B,D]2 [CE]2 | x8 | x8 | x2 A, [DE]3 [D,A,]2 | %19
 A, [DE]2 A, [DE]2 [D,A,]2 | x2 A, [DE]3 [D,A,]2 | A, [DE]2 A, [DE]2 [D,A,]2 | %22
 x2 A, [B,D]3 [D,A,]2 | A, [B,D]3 [B,D]2 [CE]2 | x8 | x8 | x G,A,D- D4 | x A,DE- E4 | x A,DF- F4 | %29
 x A,DE- E4 | x G,A,D- D4 | x A,DE- E4 | x _B,DF- F4 | x8 | x8 | x8 | x8 | x8 | x8 | x8 | x8 | x8 | %42
 x8 | x8 | x8 | x8 | x8 | x8 | x8 | x8 |] %50

